svg/color/smcion.svg

<svg width="40" height="40" viewBox="0 0 40 40" fill="none" xmlns="http://www.w3.org/2000/svg">
<g clip-path="url(#clip0_819_3631)">
<path d="M20 0C31.0457 0 40 8.9543 40 20C40 31.0457 31.0457 40 20 40C8.95431 40 7.90517e-06 31.0457 0 20C6.58765e-07 8.95431 8.95431 1.97595e-06 20 0Z" fill="#D0D2E2"/>
<path d="M26 6C30.4183 6 34 9.58172 34 14V26C34 30.4183 30.4183 34 26 34H14C9.58172 34 6 30.4183 6 26V14C6 9.58172 9.58172 6 14 6H26Z" fill="#151F6D"/>
<g clip-path="url(#clip1_819_3631)">
<path d="M21.6145 14.8683C21.207 14.8625 20.7911 14.87 20.3695 14.8933C17.0445 15.075 13.8436 16.1517 11.8395 17.7625C11.4486 18.0783 10.8561 18.7067 10.6286 19.0483C10.1795 19.715 10.0003 20.2517 10.0003 20.925C10.0003 22.2167 10.8553 23.3 12.5053 24.09C13.5203 24.5783 14.7303 24.8983 16.1653 25.06C17.1678 25.1708 18.8303 25.155 19.972 25.0217C23.2745 24.6342 26.2361 23.4208 27.9053 21.7775C28.107 21.5758 28.547 21.0683 28.5628 21.0158C28.5628 21.0125 28.6503 21.0417 28.7578 21.0775C29.2195 21.2342 29.7145 21.0125 29.9228 20.5533C30.0336 20.32 30.0236 19.9433 29.9036 19.6992C29.7975 19.481 29.6126 19.3112 29.3861 19.2242L29.2295 19.1683V19.0025C29.2295 18.29 28.8778 17.5633 28.227 16.9325C26.9203 15.6658 24.4661 14.915 21.6145 14.8683ZM21.4845 15.1975C22.0161 15.1908 22.532 15.2083 23.0145 15.2508C24.9111 15.4175 26.5253 15.9025 27.6703 16.6542C28.0903 16.9308 28.6503 17.4892 28.852 17.8342C29.047 18.1692 29.1645 18.5408 29.1878 18.8925L29.2045 19.1683L29.0045 19.1717C28.872 19.1744 28.7418 19.2065 28.6232 19.2656C28.5046 19.3246 28.4006 19.4093 28.3186 19.5133C28.1553 19.7217 28.107 19.865 28.1103 20.1617C28.1103 20.4417 28.1786 20.625 28.3511 20.8242L28.4586 20.9442L28.1686 21.2375C27.5995 21.8125 26.952 22.2725 26.1003 22.6958C23.9461 23.7758 21.047 24.3408 18.3853 24.2008C16.5703 24.1067 15.122 23.7825 13.9145 23.2033C12.642 22.595 11.8495 21.7675 11.6478 20.8533C11.137 18.54 14.2636 16.175 18.8086 15.43C19.6933 15.2864 20.5874 15.2084 21.4836 15.1967L21.4845 15.1975ZM29.167 16.4867L29.1586 16.4883C29.1336 16.4883 29.1095 16.4883 29.0853 16.4967C29.052 16.5025 29.0195 16.5183 28.9878 16.5317C28.9425 16.5578 28.9033 16.5933 28.8728 16.6358C28.8595 16.6583 28.8436 16.6792 28.837 16.7042C28.822 16.7362 28.813 16.7706 28.8103 16.8058C28.8078 16.8485 28.8123 16.8913 28.8236 16.9325C28.8492 17.0104 28.9003 17.0773 28.9686 17.1225C29.0162 17.1517 29.0692 17.1707 29.1245 17.1783C29.1957 17.185 29.2673 17.1714 29.3311 17.1392C29.3767 17.1161 29.4164 17.0831 29.4474 17.0425C29.4784 17.002 29.4999 16.955 29.5103 16.905C29.5145 16.8758 29.5211 16.8475 29.517 16.8183C29.5178 16.7967 29.512 16.7733 29.5086 16.7517C29.4853 16.6617 29.4283 16.5842 29.3495 16.535C29.2956 16.5058 29.2357 16.4893 29.1745 16.4867H29.167ZM29.1411 16.5583H29.1911C29.2238 16.5611 29.2555 16.5705 29.2845 16.5858C29.3011 16.5925 29.3153 16.6025 29.3295 16.615C29.3486 16.6317 29.3695 16.6492 29.382 16.6717C29.3951 16.691 29.4055 16.712 29.4128 16.7342C29.4228 16.7567 29.4236 16.7817 29.4295 16.8058C29.4278 16.8317 29.4328 16.8592 29.4261 16.885C29.4236 16.9125 29.4111 16.9367 29.3995 16.9617C29.3945 16.9775 29.3836 16.99 29.3753 17.0033C29.3581 17.0278 29.3367 17.049 29.312 17.0658C29.2978 17.0783 29.2786 17.0825 29.2628 17.0908C29.2445 17.0958 29.2261 17.1042 29.2061 17.105C29.2011 17.105 29.197 17.105 29.1911 17.1067C29.1661 17.1067 29.1403 17.11 29.1153 17.105C29.067 17.0965 29.0224 17.0739 28.987 17.04C28.9729 17.0288 28.9605 17.0156 28.9503 17.0008C28.9353 16.9842 28.9286 16.9633 28.9178 16.9442C28.9103 16.9275 28.9078 16.9092 28.9036 16.8917C28.897 16.8692 28.8986 16.845 28.8986 16.8217C28.897 16.7892 28.907 16.7575 28.9161 16.7275C28.9278 16.7058 28.9361 16.6825 28.952 16.6642C28.9645 16.6442 28.9845 16.6308 28.9995 16.615C29.0163 16.6014 29.0348 16.5899 29.0545 16.5808C29.0736 16.575 29.092 16.5658 29.112 16.5633C29.1214 16.5605 29.1312 16.5588 29.1411 16.5583ZM29.1803 16.6583L29.1345 16.6608H29.0903L29.0736 16.6642L29.0578 16.6658L29.0453 16.6675L29.032 16.6683V17.0142H29.1103V16.8725L29.1411 16.8742L29.1703 16.8758L29.1803 16.8783L29.1911 16.88L29.2011 16.89L29.2045 16.8967L29.2078 16.9025L29.2095 16.9108L29.2111 16.9175L29.2203 16.9492L29.2253 16.9608L29.2303 16.9725H29.317L29.312 16.9625L29.3053 16.9333L29.297 16.9025L29.292 16.8842L29.287 16.8675L29.2811 16.855L29.2745 16.8442L29.2661 16.8342L29.2578 16.8258L29.2453 16.8192L29.2336 16.8108V16.8083L29.2436 16.8033L29.2545 16.7983L29.2645 16.7933L29.2745 16.7867L29.2828 16.7783L29.2886 16.7675L29.2936 16.7558L29.2953 16.7392V16.7233L29.2936 16.7125L29.292 16.7008L29.2853 16.6892L29.2786 16.6783L29.2703 16.6683L29.262 16.66L29.2495 16.655L29.237 16.6483L29.222 16.645L29.207 16.6408L29.1828 16.6392L29.1803 16.6583ZM29.1345 16.7167H29.1786L29.1928 16.7208L29.2061 16.7258L29.2178 16.7358L29.2261 16.7442L29.227 16.75L29.2303 16.7583V16.7758L29.2253 16.7875L29.2211 16.7958L29.2128 16.8008L29.2045 16.8092L29.1895 16.8117L29.1786 16.8183L29.1453 16.82H29.112V16.7192L29.1228 16.7175L29.1345 16.7167ZM13.5028 18.5983C13.4436 18.6017 13.4161 18.6183 13.4161 18.6433C13.4161 18.725 13.3678 18.7283 13.1786 18.6633C12.9916 18.589 12.7845 18.582 12.5928 18.6433C12.4489 18.6899 12.3241 18.7823 12.2378 18.9065C12.1514 19.0306 12.1081 19.1797 12.1145 19.3308C12.1145 19.6692 12.2611 19.835 12.8536 20.1733C12.9995 20.2583 13.1661 20.3775 13.2178 20.4392C13.3778 20.6175 13.342 20.81 13.1395 20.895C12.792 21.0375 12.4203 20.8033 12.3561 20.3933C12.3361 20.2633 12.3295 20.2583 12.2253 20.2583H12.1145V21.2333H12.2253C12.3061 21.2333 12.3395 21.2167 12.352 21.1717C12.3686 21.1092 12.372 21.1092 12.5703 21.1717C13.1686 21.3567 13.6703 21.1317 13.7745 20.6308C13.8595 20.2308 13.677 19.985 13.0453 19.6392C12.5703 19.3792 12.437 19.1942 12.612 19.0275C12.6592 18.9769 12.7199 18.9409 12.7869 18.9236C12.8539 18.9063 12.9245 18.9085 12.9903 18.93C13.2078 18.9858 13.4161 19.2717 13.4161 19.5158C13.4161 19.5617 13.4428 19.5742 13.5303 19.5742H13.6445V18.6H13.5028V18.5983ZM26.0411 19.085L26.0086 19.0867C25.9436 19.0867 25.9086 19.1058 25.8953 19.1517C25.8753 19.2133 25.8686 19.2133 25.7711 19.1617C25.6278 19.09 25.2503 19.0733 25.062 19.135C24.857 19.2 24.6028 19.4383 24.492 19.6625C24.4203 19.8092 24.3978 19.9042 24.3878 20.125C24.3711 20.4667 24.4528 20.7158 24.6478 20.9275C25.0745 21.3892 25.8686 21.3017 26.1586 20.7608L26.2203 20.6408L26.142 20.5792L26.0645 20.5142L25.9145 20.6833C25.6895 20.9433 25.4778 20.9992 25.2045 20.8783C24.9378 20.755 24.8045 20.395 24.8728 19.9717C24.9445 19.51 25.1786 19.295 25.537 19.36C25.687 19.3892 25.8595 19.5617 25.9178 19.7433C25.9595 19.8642 25.9795 19.8842 26.0678 19.8933L26.172 19.9033L26.1553 19.6983C26.1045 19.1117 26.107 19.0825 26.0411 19.085ZM19.0461 19.1125V19.2292C19.0461 19.3433 19.0478 19.3467 19.1586 19.3467C19.2528 19.3467 19.2786 19.3633 19.3053 19.4317C19.3245 19.4767 19.3378 19.8067 19.3378 20.1608C19.3378 20.515 19.3245 20.8425 19.3045 20.8883C19.2795 20.9567 19.2528 20.9725 19.1586 20.9725C19.0511 20.9725 19.0461 20.9792 19.0461 21.0867V21.2008H20.0211V21.09C20.0211 20.9825 20.0145 20.9758 19.9003 20.9667L19.777 20.9567L19.767 20.6208C19.7636 20.4392 19.7703 20.2908 19.7836 20.2942C19.7961 20.2942 19.9528 20.4975 20.1286 20.7483L20.4445 21.2008H21.7136V21.0867C21.7136 20.9825 21.7036 20.9725 21.622 20.9725C21.4636 20.9725 21.4536 20.9367 21.4536 20.3867L21.457 19.8842L21.7461 20.5333C22.1336 21.405 22.1045 21.4017 22.4653 20.5825L22.7395 19.9658L22.7486 20.4258C22.752 20.68 22.7486 20.9075 22.742 20.9308C22.7328 20.9533 22.6736 20.9725 22.6086 20.9725C22.5011 20.9725 22.4953 20.9792 22.4953 21.0867V21.2008H24.3486V21.0867C24.3486 20.9825 24.342 20.9725 24.2511 20.9725C24.1895 20.9725 24.1436 20.95 24.1211 20.9108C24.0853 20.8425 24.0753 19.5483 24.1078 19.4192C24.1245 19.3633 24.1536 19.3467 24.2378 19.3467C24.342 19.3467 24.3486 19.34 24.3486 19.2333V19.1192H22.7945L22.5111 19.7608C22.3553 20.115 22.2153 20.4158 22.2028 20.4292C22.1886 20.4425 22.0453 20.1608 21.8828 19.7958L21.587 19.135L21.2578 19.1258L20.9328 19.1158V19.2325C20.9328 19.3367 20.9395 19.3467 21.0303 19.3467C21.1086 19.3467 21.1378 19.3667 21.1603 19.4317C21.1803 19.4767 21.1936 19.8067 21.1936 20.1608C21.1936 20.515 21.1803 20.8425 21.1603 20.8883C21.1378 20.9567 21.1086 20.9725 21.0236 20.9725C20.9489 20.968 20.8764 20.9457 20.812 20.9075C20.7145 20.8492 20.467 20.5475 20.337 20.3267C20.2845 20.235 20.2845 20.235 20.402 20.1575C20.5645 20.05 20.6361 19.9425 20.6595 19.7633C20.6737 19.6562 20.6551 19.5472 20.6062 19.4508C20.5572 19.3544 20.4802 19.2751 20.3853 19.2233C20.2353 19.1383 20.2161 19.135 19.6403 19.1258L19.0461 19.1125ZM26.1711 19.1125V19.2267C26.1711 19.3367 26.1778 19.3433 26.2953 19.3533L26.4161 19.3633V20.9567L26.2953 20.9667C26.1786 20.9758 26.172 20.9833 26.172 21.09V21.2008H27.1461V21.09C27.1461 20.9825 27.1403 20.9758 27.0261 20.9667L26.902 20.9567L26.8928 20.615C26.8828 20.2083 26.8595 20.1983 27.2703 20.7775L27.557 21.1842L27.872 21.1942L28.1886 21.2042V21.0933C28.1886 20.9892 28.1786 20.9792 28.0645 20.9633C27.9211 20.9367 27.8203 20.8392 27.5695 20.4842C27.4136 20.2633 27.4036 20.2425 27.4561 20.2092C27.4886 20.1925 27.5628 20.1342 27.622 20.0858C27.892 19.855 27.8203 19.3825 27.4911 19.2067C27.3711 19.145 27.2995 19.135 26.7661 19.1258L26.1711 19.1125ZM13.7745 19.1192V19.2325C13.7745 19.3408 13.7811 19.3467 13.8853 19.3467C13.957 19.3467 14.002 19.3667 14.0153 19.3992C14.0253 19.4283 14.0353 19.7183 14.0353 20.0467C14.0353 20.8275 14.0836 20.9725 14.4095 21.145C14.5136 21.2008 14.5986 21.2133 14.8328 21.2133C15.2328 21.2133 15.397 21.1292 15.5495 20.8425C15.602 20.745 15.6153 20.6325 15.6286 20.0467L15.6453 19.3633L15.8428 19.3533C16.0286 19.3433 16.0453 19.35 16.0645 19.4183C16.0978 19.5425 16.087 20.8 16.0511 20.8883C16.0286 20.9533 15.9995 20.9725 15.9211 20.9725C15.8295 20.9725 15.8236 20.9825 15.8236 21.0867V21.2008H16.7678V21.09C16.7678 20.9825 16.7611 20.9758 16.647 20.9658L16.5236 20.9567L16.5136 20.64L16.5036 20.3267L16.6953 20.3283C17.0311 20.3317 17.227 20.2225 17.3336 19.9592C17.4736 19.6233 17.2786 19.2558 16.9011 19.1508C16.8361 19.135 16.3995 19.1192 15.9311 19.1192H15.077V19.23C15.077 19.3367 15.0828 19.3433 15.2003 19.3533L15.3211 19.3633L15.3303 19.975C15.3403 20.6917 15.3203 20.7642 15.0961 20.875C14.8711 20.9825 14.6436 20.9433 14.5328 20.7833C14.4811 20.7058 14.4745 20.6225 14.4745 20.0308V19.3633L14.5978 19.3533C14.712 19.3433 14.7186 19.3367 14.7186 19.23V19.1192H14.247H13.7745ZM17.3536 19.1192V19.23C17.3536 19.3367 17.3603 19.3433 17.477 19.3533L17.5978 19.3633L17.6078 20.1408C17.617 20.9808 17.617 20.9725 17.4445 20.9725C17.3636 20.9725 17.3528 20.9858 17.3528 21.0867V21.2008H18.9361L19.0361 20.8758L19.1345 20.55H19.0261C18.9428 20.55 18.9095 20.5725 18.8511 20.6633C18.7211 20.875 18.6486 20.9075 18.3261 20.9075H18.037V20.2575H18.2811C18.4503 20.2575 18.5311 20.2717 18.5386 20.2975C18.5478 20.32 18.5611 20.3775 18.5711 20.4258C18.5878 20.5008 18.6103 20.5175 18.6878 20.5175H18.7861V19.705H18.8861C18.9645 19.705 18.9845 19.695 18.9678 19.6525C18.9525 19.5558 18.9461 19.4579 18.9486 19.36V19.1183H18.1503L17.3536 19.1192ZM23.3311 19.3483C23.3603 19.3483 23.3961 19.3508 23.4436 19.3533L23.6486 19.3633V20.9567H23.437C23.242 20.9567 23.2261 20.95 23.2061 20.875C23.1703 20.7483 23.1736 19.5225 23.2095 19.4283C23.2311 19.3675 23.2453 19.3492 23.3311 19.3483ZM18.037 19.3733L18.3303 19.3858C18.5353 19.3925 18.6361 19.4083 18.6686 19.4442C18.7022 19.4898 18.7255 19.5421 18.737 19.5975C18.7561 19.695 18.7536 19.705 18.6753 19.705C18.6103 19.705 18.587 19.7242 18.5711 19.7925C18.564 19.837 18.5529 19.8808 18.5378 19.9233C18.532 19.9525 18.4503 19.965 18.2811 19.965H18.037V19.6692V19.3733ZM19.8811 19.3825C19.9244 19.3851 19.9665 19.3974 20.0045 19.4183C20.1545 19.4867 20.2295 19.7208 20.1511 19.8708C20.1095 19.9492 19.9528 20.03 19.8428 20.03H19.7603V19.7242C19.7603 19.4183 19.7703 19.3892 19.8811 19.3825ZM27.0061 19.3825C27.0497 19.385 27.0921 19.3973 27.1303 19.4183C27.2245 19.46 27.3095 19.5975 27.3095 19.705C27.3095 19.88 27.1428 20.03 26.9478 20.03C26.8928 20.03 26.8861 20.0008 26.8861 19.7242C26.8861 19.4183 26.8961 19.3892 27.0061 19.3825ZM16.507 19.4117H16.6178C16.7028 19.4117 16.7511 19.4383 16.8161 19.5158C16.8911 19.6075 16.9045 19.6433 16.8911 19.7767C16.872 19.9783 16.7936 20.0633 16.6311 20.0633H16.507V19.7375V19.4117Z" fill="white"/>
</g>
</g>
<defs>
<clipPath id="clip0_819_3631">
<rect width="40" height="40" fill="white"/>
</clipPath>
<clipPath id="clip1_819_3631">
<rect width="20" height="20" fill="white" transform="translate(10 10)"/>
</clipPath>
</defs>
</svg>

<svg xmlns="http://www.w3.org/2000/svg" width="40" height="40" fill="none" viewBox="0 0 40 40"><g clip-path="url(#smcion_svg-a)"><path fill="#D0D2E2" d="M20 0c11.046 0 20 8.954 20 20s-8.954 20-20 20S0 31.046 0 20 8.954 0 20 0"/><path fill="#151F6D" d="M26 6a8 8 0 0 1 8 8v12a8 8 0 0 1-8 8H14a8 8 0 0 1-8-8V14a8 8 0 0 1 8-8z"/><g clip-path="url(#smcion_svg-b)"><path fill="#fff" d="M21.615 14.868q-.613-.008-1.245.025c-3.326.182-6.526 1.259-8.53 2.87-.391.315-.984.944-1.211 1.285-.45.667-.629 1.204-.629 1.877 0 1.292.855 2.375 2.505 3.165 1.015.488 2.225.808 3.66.97 1.003.11 2.665.095 3.807-.038 3.302-.388 6.264-1.601 7.933-3.244.202-.202.642-.71.658-.762 0-.003.087.026.195.062a.943.943 0 0 0 1.165-.525c.11-.233.1-.61-.02-.854a.96.96 0 0 0-.517-.475l-.156-.056v-.165c0-.713-.352-1.44-1.003-2.07-1.307-1.267-3.76-2.018-6.613-2.065m-.13.33c.531-.007 1.047.01 1.53.053 1.896.167 3.51.652 4.655 1.403.42.277.98.835 1.182 1.18.195.335.313.707.336 1.058l.017.276-.2.004a.9.9 0 0 0-.686.341c-.164.209-.212.352-.209.649 0 .28.069.463.241.662l.108.12-.29.294c-.57.575-1.217 1.035-2.069 1.458-2.154 1.08-5.053 1.645-7.715 1.505-1.815-.094-3.263-.419-4.47-.998-1.273-.608-2.065-1.436-2.267-2.35-.511-2.313 2.616-4.678 7.16-5.423a18 18 0 0 1 2.676-.233m7.682 1.289-.008.001c-.025 0-.05 0-.074.009-.033.006-.066.021-.097.035a.4.4 0 0 0-.115.104c-.014.022-.03.043-.036.068a.3.3 0 0 0-.027.102.4.4 0 0 0 .014.127.36.36 0 0 0 .145.19q.072.044.155.055a.4.4 0 0 0 .207-.039.34.34 0 0 0 .18-.234c.004-.03.01-.058.006-.087q-.002-.033-.008-.066a.36.36 0 0 0-.16-.217.4.4 0 0 0-.175-.048zm-.026.071h.05a.3.3 0 0 1 .094.028q.023.01.044.029.032.024.053.057a.3.3 0 0 1 .03.062c.01.023.012.048.018.072-.002.026.003.053-.004.079-.002.027-.015.052-.026.077q-.01.022-.025.041a.3.3 0 0 1-.063.063c-.014.012-.033.017-.05.025-.018.005-.036.013-.056.014l-.015.002c-.025 0-.05.003-.076-.002a.25.25 0 0 1-.128-.065.2.2 0 0 1-.037-.04c-.015-.016-.021-.037-.032-.056q-.01-.026-.014-.052c-.007-.023-.005-.047-.005-.07-.002-.033.008-.064.017-.095.012-.021.02-.044.036-.063.012-.02.032-.033.047-.049a.3.3 0 0 1 .056-.034c.019-.006.037-.015.057-.018zm.04.1-.047.003h-.044l-.016.003-.016.002-.013.002h-.013v.346h.078v-.142l.031.002.03.002.01.002.01.002.01.01.003.007.004.006.002.008.001.006.01.032.004.012.005.012h.087l-.005-.01-.007-.03-.008-.03-.005-.019-.005-.017-.006-.012-.006-.01-.009-.01-.008-.01-.013-.006-.011-.008v-.003l.01-.005.01-.005.01-.005.01-.006.009-.009.006-.01.005-.012.001-.017v-.016l-.001-.01-.002-.012-.007-.012-.006-.01-.009-.01-.008-.009-.012-.005-.013-.007-.015-.003-.015-.004-.024-.002zm-.047.059h.045l.014.004.013.005.012.01.008.008.001.006.003.008v.018l-.005.012-.004.008-.008.005-.009.008-.015.003-.01.006-.034.002h-.033v-.1l.01-.002zm-15.631 1.881q-.088.007-.087.045c0 .082-.048.085-.237.02a.87.87 0 0 0-.586-.02.69.69 0 0 0-.479.688c0 .338.147.504.74.842.146.085.312.205.364.266.16.178.124.371-.079.456-.347.143-.719-.092-.783-.502-.02-.13-.027-.135-.13-.135h-.112v.975h.111c.081 0 .114-.016.127-.061.017-.063.02-.063.218 0 .599.185 1.1-.04 1.204-.541.086-.4-.097-.646-.729-.992-.475-.26-.608-.445-.433-.611a.36.36 0 0 1 .378-.098c.218.056.426.342.426.586 0 .046.027.058.114.058h.115V18.6h-.142zm12.538.487-.032.002c-.065 0-.1.019-.114.065-.02.061-.026.061-.124.01-.143-.072-.52-.089-.709-.027-.205.065-.46.303-.57.527-.072.147-.094.242-.104.463-.017.342.065.59.26.802.427.462 1.22.375 1.51-.166l.062-.12-.078-.062-.078-.065-.15.17c-.225.26-.436.315-.71.194-.266-.123-.4-.483-.331-.906.072-.462.306-.677.664-.612.15.03.323.202.38.383.042.121.063.141.15.15l.105.01-.017-.205c-.05-.586-.048-.616-.114-.613m-6.995.027v.117c0 .114.002.118.113.118.094 0 .12.016.146.085.02.045.033.375.033.729s-.014.681-.034.727c-.024.069-.051.084-.145.084-.108 0-.113.007-.113.115v.114h.975v-.111c0-.107-.006-.114-.12-.123l-.124-.01-.01-.336c-.003-.182.003-.33.017-.327.012 0 .169.203.345.454l.316.453h1.269v-.114c0-.104-.01-.114-.092-.114-.158 0-.168-.036-.168-.586l.003-.503.29.65c.387.871.358.868.718.049l.274-.617.01.46c.003.254 0 .482-.007.505-.01.022-.068.041-.133.041-.108 0-.114.007-.114.115v.114h1.854v-.114c0-.104-.007-.114-.098-.114q-.094-.002-.13-.062c-.036-.069-.046-1.363-.013-1.492.017-.056.046-.072.13-.072.104 0 .11-.007.11-.114v-.114h-1.553l-.284.642c-.156.354-.296.655-.308.668-.014.014-.158-.268-.32-.633l-.296-.661-.33-.01-.324-.01v.118c0 .104.006.114.097.114.079 0 .108.02.13.085.02.045.034.375.034.729s-.014.681-.034.727c-.022.069-.051.084-.136.084a.5.5 0 0 1-.212-.065c-.098-.058-.345-.36-.475-.58-.052-.092-.052-.092.065-.17.162-.107.234-.215.258-.394a.535.535 0 0 0-.275-.54c-.15-.085-.169-.088-.745-.097zm7.125 0v.115c0 .11.007.116.124.126l.121.01v1.594l-.12.01c-.117.009-.124.016-.124.123v.11h.974v-.11c0-.107-.006-.114-.12-.123l-.124-.01-.01-.342c-.01-.407-.032-.417.378.163l.287.406.315.01.317.01v-.11c0-.105-.01-.115-.125-.13-.143-.027-.244-.125-.494-.48-.156-.22-.166-.242-.114-.275a2 2 0 0 0 .166-.123c.27-.231.198-.703-.13-.88-.12-.061-.193-.071-.726-.08zm-12.396.007v.114c0 .108.006.114.11.114q.11.002.13.052c.01.03.02.32.02.648 0 .78.049.925.374 1.098.105.056.19.068.424.068.4 0 .564-.084.716-.37.053-.098.066-.21.08-.796l.016-.684.198-.01c.186-.01.202-.003.221.065.034.125.023 1.382-.013 1.47-.022.065-.051.084-.13.084-.091 0-.097.01-.097.115v.114h.944v-.111c0-.107-.007-.114-.121-.124l-.123-.01-.01-.316-.01-.313.191.001c.336.004.532-.105.639-.369.14-.336-.055-.703-.433-.808-.065-.016-.502-.032-.97-.032h-.854v.111c0 .107.006.113.123.123l.121.01.01.612c.01.717-.01.79-.235.9-.225.108-.452.068-.563-.092-.052-.077-.058-.16-.058-.752v-.668l.123-.01c.114-.01.12-.016.12-.123v-.11h-.944m3.579 0v.111c0 .107.006.113.123.123l.12.01.01.778c.01.84.01.832-.162.832-.081 0-.092.013-.092.114v.114h1.583l.1-.325.098-.326h-.108c-.083 0-.116.023-.175.113-.13.212-.202.244-.525.244h-.289v-.65h.244c.17 0 .25.015.258.04.009.023.022.08.032.129.017.075.04.091.117.091h.098v-.812h.1c.079 0 .099-.01.082-.052a1.6 1.6 0 0 1-.02-.293v-.242h-.798zm5.977.23q.043 0 .113.004l.205.01v1.594h-.212c-.195 0-.21-.007-.23-.082-.037-.127-.033-1.352.002-1.447.022-.06.036-.079.122-.08m-5.294.024.293.013c.205.006.306.022.339.058a.4.4 0 0 1 .068.154c.02.097.017.107-.062.107-.065 0-.088.02-.104.088a1 1 0 0 1-.033.13c-.006.03-.088.042-.257.042h-.244zm1.844.01a.3.3 0 0 1 .123.035c.15.069.226.303.147.453-.041.078-.198.159-.308.159h-.083v-.306c0-.306.01-.335.121-.341m7.125 0a.3.3 0 0 1 .124.035c.095.042.18.18.18.287 0 .175-.167.325-.362.325-.055 0-.062-.03-.062-.306 0-.306.01-.335.12-.341m-10.499.029h.11c.086 0 .134.026.2.104.074.092.087.127.074.26-.019.202-.097.287-.26.287h-.124z"/></g></g><defs><clipPath id="smcion_svg-a"><path fill="#fff" d="M0 0h40v40H0z"/></clipPath><clipPath id="smcion_svg-b"><path fill="#fff" d="M10 10h20v20H10z"/></clipPath></defs></svg>
